X:1
T:Nancy Dawson. Le4.001
B:L.Leadley MS#4 c1850
Z:Village Music Project, 2016 Steve Mansfield
M:6/8
L:1/8
Q:3/8=120
K:G
G2G G2B | d2B G2B | A2B A2B | A2G FED |
G2G G2B | d2B G2B | A2G F2E | D3 D3 :|
|: A2A A2B | A2G FED | B2c d2e | d2g dBG |
c2B c2d | e2f gfe | dcB AGF | G3 G3 :|

